img/icon-p2p-teenager.svg

<svg width="116" height="130" viewBox="0 0 116 130" fill="none" xmlns="http://www.w3.org/2000/svg">
<g filter="url(#filter0_d_585_2068)">
<path fill-rule="evenodd" clip-rule="evenodd" d="M53.4667 15.295C44.5153 16.7021 36.7225 22.252 32.5845 30.1675C31.2712 32.6792 30.5023 34.8408 29.8743 37.7857C29.4466 39.7912 29.3781 40.8273 29.3811 45.2364C29.3838 49.6125 29.4562 50.6966 29.8777 52.6871C31.0855 58.3898 33.5357 63.0251 37.48 67.0684C39.1537 68.7842 41.5313 70.6668 43.2792 71.6599L44.2449 72.2086L44.2465 74.5119L44.2484 76.8151L39.9806 76.9339C34.969 77.0734 32.6362 77.5662 29.1348 79.225C25.3767 81.0052 22.2613 83.4999 19.8739 86.6409C18.2958 88.7168 16.3727 92.7068 15.64 95.4252C15.031 97.6854 15.0266 97.7564 15.0132 105.606L15 113.511L15.7441 114.255L16.4881 115H57.6776H98.867L99.6111 114.255L100.355 113.511L100.342 105.606C100.328 97.7564 100.324 97.6854 99.7151 95.4252C98.9824 92.7068 97.0593 88.7168 95.4812 86.6409C92.2025 82.3272 87.2298 79.0293 81.9184 77.6456C79.9926 77.144 78.9856 77.0345 75.3745 76.9339L71.1068 76.8151V74.5066V72.1984L71.9535 71.7482C73.4646 70.9449 76.1894 68.7881 77.8803 67.0566C81.8228 63.0196 84.269 58.3927 85.4774 52.6871C85.8989 50.6966 85.9713 49.6125 85.974 45.2364C85.977 40.8178 85.9089 39.7935 85.4776 37.7702C83.9874 30.78 80.4656 25.155 74.8674 20.8237C72.5289 19.0146 68.2391 16.8186 65.644 16.1021C61.6713 15.0055 57.1957 14.7089 53.4667 15.295ZM61.4254 20.773C68.9932 22.0927 75.1615 26.7947 78.4032 33.7148C79.2255 35.4707 80.1071 38.4064 80.2564 39.8875L80.3251 40.5703H57.6776H35.03L35.0956 39.8875C35.3448 37.2941 36.9718 33.1262 38.7934 30.4144C39.9931 28.6281 43.014 25.6036 44.7241 24.476C49.8925 21.0684 55.7158 19.7774 61.4254 20.773ZM80.5452 48.2523C80.2514 52.2301 79.2053 55.7881 77.4718 58.7061C74.0095 64.5337 68.6042 68.3809 61.9974 69.7195C59.1901 70.2885 54.1562 70.0834 51.532 69.2934C45.5121 67.4811 41.0319 64.0059 37.8834 58.7061C36.1499 55.7881 35.1038 52.2301 34.8099 48.2523L34.6544 46.1469H57.6776H80.7007L80.5452 48.2523ZM52.2934 75.0729C56.0494 75.8482 62.2071 75.5755 65.6541 74.4816C66.1619 74.3204 66.1625 74.3229 66.0456 76.5647C65.8833 79.6739 65.3031 81.1249 63.5017 82.9265C61.7248 84.7033 60.1344 85.3708 57.6776 85.3708C55.4959 85.3708 53.7824 84.7278 52.2201 83.323C50.1463 81.4586 49.2663 79.284 49.2595 76.0059C49.2561 74.4181 49.2782 74.3473 49.7327 74.4916C49.9949 74.5749 51.1471 74.8364 52.2934 75.0729ZM45.9459 83.6467C47.3059 86.289 50.5719 88.9362 53.7417 89.9652L54.9271 90.3501L54.9935 97.0376L55.06 103.725L55.8041 104.469C56.4444 105.109 56.7057 105.213 57.6776 105.213C58.6495 105.213 58.9108 105.109 59.551 104.469L60.2951 103.725L60.3616 97.0376L60.4281 90.3501L61.6135 89.9652C64.7832 88.9362 68.0492 86.289 69.4092 83.6467L70.0825 82.3386L73.7243 82.3397C77.8061 82.3411 79.5435 82.5603 82.0322 83.3881C84.9002 84.3423 86.9205 85.6301 89.3159 88.0319C91.7124 90.4348 93.0109 92.4719 93.9555 95.3114C94.8218 97.916 95.0026 99.5532 95.0044 104.814L95.0062 109.651H57.6776H20.3489L20.3507 104.814C20.3526 99.5532 20.5333 97.916 21.3996 95.3114C22.3537 92.4435 23.6416 90.4232 26.0434 88.0278C28.4547 85.6228 30.4825 84.3334 33.3602 83.3754C35.8578 82.5439 37.0505 82.3939 41.4032 82.3645L45.2726 82.3386L45.9459 83.6467Z" fill="#06FF79"/>
</g>
<defs>
<filter id="filter0_d_585_2068" x="0" y="0" width="115.355" height="130" filterUnits="userSpaceOnUse" color-interpolation-filters="sRGB">
<feFlood flood-opacity="0" result="BackgroundImageFix"/>
<feColorMatrix in="SourceAlpha" type="matrix" values="0 0 0 0 0 0 0 0 0 0 0 0 0 0 0 0 0 0 127 0" result="hardAlpha"/>
<feOffset/>
<feGaussianBlur stdDeviation="7.5"/>
<feComposite in2="hardAlpha" operator="out"/>
<feColorMatrix type="matrix" values="0 0 0 0 0.0463889 0 0 0 0 0.695833 0 0 0 0 0.346333 0 0 0 0.8 0"/>
<feBlend mode="normal" in2="BackgroundImageFix" result="effect1_dropShadow_585_2068"/>
<feBlend mode="normal" in="SourceGraphic" in2="effect1_dropShadow_585_2068" result="shape"/>
</filter>
</defs>
</svg>

<svg width="116" height="130" fill="none" xmlns="http://www.w3.org/2000/svg"><g filter="url(#filter0_d_585_2068)"><path fill-rule="evenodd" clip-rule="evenodd" d="M53.467 15.295c-8.952 1.407-16.745 6.957-20.883 14.873-1.313 2.511-2.082 4.673-2.71 7.618-.427 2.005-.496 3.041-.493 7.45.003 4.377.075 5.46.497 7.451 1.207 5.703 3.658 10.338 7.602 14.381 1.674 1.716 4.051 3.599 5.8 4.592l.965.549.002 2.303.001 2.303-4.267.119c-5.012.14-7.345.632-10.846 2.291-3.758 1.78-6.874 4.275-9.261 7.416-1.578 2.076-3.501 6.066-4.234 8.784-.609 2.26-.613 2.331-.627 10.181L15 113.511l.744.744.744.745H98.867l.744-.745.744-.744-.013-7.905c-.014-7.85-.018-7.92-.627-10.18-.733-2.72-2.656-6.71-4.234-8.785-3.278-4.314-8.251-7.612-13.563-8.995-1.925-.502-2.932-.612-6.544-.712l-4.267-.119v-4.617l.847-.45c1.51-.803 4.235-2.96 5.926-4.691 3.943-4.037 6.389-8.664 7.597-14.37.422-1.99.494-3.075.497-7.45.003-4.42-.065-5.444-.496-7.467-1.49-6.99-5.012-12.615-10.61-16.946-2.34-1.81-6.629-4.005-9.224-4.722-3.973-1.097-8.448-1.393-12.177-.807zm7.958 5.478c7.568 1.32 13.737 6.022 16.978 12.942.822 1.756 1.704 4.691 1.853 6.172l.07.683H35.03l.066-.682c.249-2.594 1.876-6.762 3.697-9.474 1.2-1.786 4.221-4.81 5.931-5.938 5.169-3.408 10.992-4.699 16.701-3.703zm19.12 27.48c-.294 3.977-1.34 7.535-3.073 10.453-3.462 5.828-8.868 9.675-15.475 11.013-2.807.57-7.84.364-10.465-.426-6.02-1.812-10.5-5.287-13.649-10.587-1.733-2.918-2.78-6.476-3.073-10.454l-.156-2.105h46.047l-.156 2.105zm-28.252 26.82c3.756.775 9.914.503 13.361-.591.508-.162.508-.16.392 2.083-.163 3.109-.743 4.56-2.544 6.362-1.777 1.776-3.368 2.444-5.824 2.444-2.182 0-3.896-.643-5.458-2.048-2.074-1.864-2.954-4.039-2.96-7.317-.004-1.588.018-1.659.473-1.514.262.083 1.414.344 2.56.58zm-6.347 8.574c1.36 2.642 4.626 5.29 7.796 6.318l1.185.385.066 6.688.067 6.687.744.744c.64.64.902.744 1.874.744.972 0 1.233-.104 1.873-.744l.744-.744.067-6.687.066-6.688 1.186-.385c3.17-1.029 6.435-3.676 7.795-6.318l.673-1.308h3.642c4.082.002 5.82.221 8.308 1.05 2.868.953 4.889 2.241 7.284 4.643 2.396 2.403 3.695 4.44 4.64 7.28.866 2.604 1.047 4.241 1.048 9.502l.002 4.837H20.348l.003-4.837c.002-5.26.182-6.898 1.049-9.503.954-2.868 2.242-4.888 4.643-7.283 2.412-2.405 4.44-3.695 7.317-4.653 2.498-.831 3.69-.981 8.043-1.01l3.87-.026.673 1.308z" fill="#06FF79"/></g><defs><filter id="filter0_d_585_2068" x="0" y="0" width="115.355" height="130" filterUnits="userSpaceOnUse" color-interpolation-filters="sRGB"><feFlood flood-opacity="0" result="BackgroundImageFix"/><feColorMatrix in="SourceAlpha" values="0 0 0 0 0 0 0 0 0 0 0 0 0 0 0 0 0 0 127 0" result="hardAlpha"/><feOffset/><feGaussianBlur stdDeviation="7.5"/><feComposite in2="hardAlpha" operator="out"/><feColorMatrix values="0 0 0 0 0.0463889 0 0 0 0 0.695833 0 0 0 0 0.346333 0 0 0 0.8 0"/><feBlend in2="BackgroundImageFix" result="effect1_dropShadow_585_2068"/><feBlend in="SourceGraphic" in2="effect1_dropShadow_585_2068" result="shape"/></filter></defs></svg>
